build/img/copy.svg

<svg width="32" height="25" viewBox="0 0 32 25" fill="none" xmlns="http://www.w3.org/2000/svg">
<path fill-rule="evenodd" clip-rule="evenodd" d="M22.5088 1.8404C22.4684 1.83298 22.4268 1.8291 22.3842 1.8291C22.3416 1.8291 22.3 1.83298 22.2596 1.8404H16.5406C14.265 1.8404 12.3479 3.6857 12.3479 5.93704V15.8599C12.3479 18.2217 14.1638 19.9986 16.5406 19.9986H23.8466C26.1045 19.9986 27.9442 18.1282 27.9442 15.8599V7.35198C27.9442 7.17487 27.8757 7.00462 27.753 6.87687L23.1195 2.05126C22.9902 1.91655 22.8115 1.8404 22.6247 1.8404H22.5088ZM21.6982 3.21132L16.5406 3.21206C15.0112 3.21206 13.7198 4.45508 13.7198 5.93675V15.8596C13.7198 17.4569 14.9149 18.6264 16.5406 18.6264H23.8466C25.3417 18.6264 26.5723 17.3753 26.5723 15.8596L26.5718 8.21607L25.7701 8.2188C25.465 8.21843 25.1181 8.21778 24.7324 8.21691C23.1133 8.21348 21.7922 6.94508 21.703 5.34807L21.6982 5.17575V3.21132ZM25.8206 6.84481L24.7355 6.84496C23.815 6.84301 23.0702 6.09639 23.0702 5.17575V3.98044L25.8206 6.84481Z" fill="#C8C8C8"/>
<path fill-rule="evenodd" clip-rule="evenodd" d="M13.3625 4.88922C13.3221 4.88181 13.2804 4.87793 13.2379 4.87793C13.1953 4.87793 13.1536 4.88181 13.1132 4.88922H7.39421C5.11862 4.88922 3.20153 6.73453 3.20153 8.98587V18.9087C3.20153 21.2705 5.01748 23.0475 7.39421 23.0475H14.7003C16.9581 23.0475 18.7979 21.1771 18.7979 18.9087V10.4008C18.7979 10.2237 18.7294 10.0535 18.6067 9.9257L13.9732 5.10009C13.8438 4.96537 13.6651 4.88922 13.4784 4.88922H13.3625ZM12.5519 6.26015L7.39421 6.26089C5.86486 6.26089 4.57348 7.50391 4.57348 8.98558V18.9084C4.57348 20.5058 5.7686 21.6752 7.39421 21.6752H14.7003C16.1953 21.6752 17.4259 20.4241 17.4259 18.9084L17.4255 11.2649L16.6237 11.2676C16.3187 11.2673 15.9718 11.2666 15.5861 11.2657C13.9669 11.2623 12.6459 9.99391 12.5567 8.3969L12.5519 8.22458V6.26015ZM16.6743 9.89363L15.5891 9.89379C14.6687 9.89184 13.9238 9.14522 13.9238 8.22458V7.02926L16.6743 9.89363Z" fill="#C8C8C8"/>
</svg>

<svg width="32" height="25" fill="none" xmlns="http://www.w3.org/2000/svg"><path fill-rule="evenodd" clip-rule="evenodd" d="M22.509 1.84a.689.689 0 00-.25 0h-5.718c-2.276 0-4.193 1.846-4.193 4.097v9.923c0 2.362 1.816 4.139 4.193 4.139h7.306c2.258 0 4.097-1.87 4.097-4.14V7.353a.686.686 0 00-.191-.475L23.119 2.05a.686.686 0 00-.494-.21h-.116zm-.81 1.371l-5.158.001c-1.53 0-2.821 1.243-2.821 2.725v9.923c0 1.597 1.195 2.766 2.82 2.766h7.307c1.495 0 2.725-1.25 2.725-2.766V8.216l-.802.003-1.038-.002a3.04 3.04 0 01-3.029-2.869l-.005-.172V3.21zm4.122 3.634h-1.086a1.669 1.669 0 01-1.665-1.67V3.98l2.75 2.865z" fill="#C8C8C8"/><path fill-rule="evenodd" clip-rule="evenodd" d="M13.363 4.89a.69.69 0 00-.25 0H7.394c-2.275 0-4.192 1.845-4.192 4.096v9.923c0 2.361 1.815 4.139 4.192 4.139H14.7c2.258 0 4.098-1.87 4.098-4.14v-8.507a.686.686 0 00-.191-.475L13.973 5.1a.686.686 0 00-.495-.21h-.115zm-.811 1.37H7.394c-1.53 0-2.82 1.244-2.82 2.726v9.922c0 1.598 1.195 2.767 2.82 2.767H14.7c1.495 0 2.726-1.25 2.726-2.767v-7.643l-.802.003-1.038-.002a3.04 3.04 0 01-3.03-2.87l-.004-.171V6.26zm4.122 3.634H15.59a1.669 1.669 0 01-1.665-1.67V7.03l2.75 2.865z" fill="#C8C8C8"/></svg>
